X:481
T: Ge youmai
N: C1045
O: China,Shanxi, Shenchi
S: I, 324 (2)]
N: Plattenhuelle kopiert.  Pause im Stueck!!
N: Glissandi und Fermaten.
R: Shange, Shanqu]
M: 2/4
L: 1/16
K: C
d2d4g2 | A3cA3c
Ac3z4 | Ac3z4 | A2c2d2E2 | D8
e2d4dg | A3cA3c | A3cA3c
Ac3z4 | Ac3z4 | A2c2d4 | g2cAA2G2- | G8

